icon-themes/sifr_svg/cmd/sc_pagebreakmode.svg

<svg viewBox="0 0 16 16" xmlns="http://www.w3.org/2000/svg"><path d="m1 0v11h1v4h14v-14h-4v-1zm2 2h3v3h-3zm4 0h3v3h-3zm5 0h3v3h-3zm-9 4h3v3h-3zm4 0h3v3h-3zm5 0h3v3h-3zm-9 5h3v3h-3zm4 0h3v3h-3zm5 0h3v3h-3z" fill="#555753"/></svg>

<svg xmlns="http://www.w3.org/2000/svg" viewBox="0 0 16 16">
  <path
     style="fill:#555753"
     d="M 1 0 L 1 11 L 2 11 L 2 15 L 16 15 L 16 1 L 12 1 L 12 0 L 1 0 z M 3 2 L 6 2 L 6 5 L 3 5 L 3 2 z M 7 2 L 10 2 L 10 5 L 7 5 L 7 2 z M 12 2 L 15 2 L 15 5 L 12 5 L 12 2 z M 3 6 L 6 6 L 6 9 L 3 9 L 3 6 z M 7 6 L 10 6 L 10 9 L 7 9 L 7 6 z M 12 6 L 15 6 L 15 9 L 12 9 L 12 6 z M 3 11 L 6 11 L 6 14 L 3 14 L 3 11 z M 7 11 L 10 11 L 10 14 L 7 14 L 7 11 z M 12 11 L 15 11 L 15 14 L 12 14 L 12 11 z "
     />
</svg>
